img/star.svg

<svg width="8" height="8" viewBox="0 0 8 8" fill="none" xmlns="http://www.w3.org/2000/svg">
<path fill-rule="evenodd" clip-rule="evenodd" d="M4.00005 0.333328C4.12692 0.333328 4.2428 0.405352 4.29895 0.51912L5.25147 2.44882L7.38159 2.76017C7.50711 2.77851 7.61134 2.86652 7.65047 2.98718C7.68959 3.10785 7.65683 3.24027 7.56596 3.32878L6.02489 4.82978L6.38859 6.95031C6.41004 7.07538 6.35862 7.20177 6.25596 7.27635C6.1533 7.35092 6.0172 7.36075 5.9049 7.30169L4.00005 6.29994L2.0952 7.30169C1.9829 7.36075 1.8468 7.35092 1.74414 7.27635C1.64148 7.20177 1.59006 7.07538 1.61151 6.95031L1.97521 4.82978L0.434139 3.32878C0.343267 3.24027 0.310509 3.10785 0.349635 2.98718C0.388761 2.86652 0.492988 2.77851 0.618508 2.76017L2.74863 2.44882L3.70115 0.51912C3.7573 0.405352 3.87318 0.333328 4.00005 0.333328ZM4.00005 1.41975L3.26895 2.90087C3.22044 2.99915 3.12671 3.06731 3.01826 3.08316L1.38285 3.3222L2.56596 4.47454C2.64459 4.55112 2.68047 4.6615 2.66192 4.76968L2.38278 6.39722L3.8449 5.6283C3.94203 5.57723 4.05807 5.57723 4.1552 5.6283L5.61732 6.39722L5.33818 4.76968C5.31963 4.6615 5.35552 4.55112 5.43414 4.47454L6.61725 3.3222L4.98184 3.08316C4.87339 3.06731 4.77966 2.99915 4.73115 2.90087L4.00005 1.41975Z" fill="#F2994A"/>
<path d="M2.33333 5L1 3L3 2.66667L4 1L5 2.66667L7 3.33333L5.66667 4.66667L6 7L4 6L2 7L2.33333 5Z" fill="#F2994A"/>
</svg>

<svg xmlns="http://www.w3.org/2000/svg" width="8" height="8" fill="#f2994a"  xmlns:v="https://vecta.io/nano"><path fill-rule="evenodd" d="M4 .333c.127 0 .243.072.3.186l.953 1.93 2.13.31c.126.018.23.106.27.227s.006.253-.085.342l-1.54 1.5.364 2.12c.02.125-.03.25-.133.326s-.24.084-.35.025L4 6.3 2.095 7.302c-.112.06-.248.05-.35-.025s-.154-.2-.133-.326l.364-2.12-1.54-1.5c-.09-.09-.124-.22-.085-.342s.143-.21.27-.227l2.13-.31L3.7.52c.056-.114.172-.186.3-.186zM4 1.42L3.27 2.9c-.05.098-.142.166-.25.182l-1.635.24 1.183 1.152c.08.077.115.187.096.295l-.28 1.628 1.462-.77c.097-.05.213-.05.3 0l1.462.77-.28-1.628c-.02-.108.017-.22.096-.295l1.183-1.152-1.635-.24C4.873 3.067 4.78 3 4.73 2.9L4 1.42z"/><path d="M2.333 5L1 3l2-.333L4 1l1 1.667 2 .667-1.333 1.333L6 7 4 6 2 7l.333-2z"/></svg>
